X: 20742
T: The PLOUGH BOY
Q: "Vivace"
%R: march
B: "Edinburgh Repository of Music" v.2 p.74 #2
F: http://digital.nls.uk/special-collections-of-printed-music/pageturner.cfm?id=87776133
Z: 2015 John Chambers <jc:trillian.mit.edu>
M: C
L: 1/4
K: D
a/g/ |\
fa df | (B2 A)d | ce gf | (f2 e)a/g/ |\
fa df | (B2 A)d | ce gc | e2 "_Fine."d H:|
(a |\
^g)g gg | (aA) z(a | ^g)g gg | a3 (a |\
^g)g gg | a(e f)(c | d)(B e)^G | "_D.C."A3 |]

%%sep 2 1 500
%%sep 1 1 500

